X:6
T:Green Cockade, The
T:O'Neill's March
R:march
D:Paddy Keenan: Port an Phiobaire
D:Chieftains Live
Z:id:hn-march-6
M:2/4
L:1/8
Q:1/4=100
K:Ador
eA AB/d/ | e/g/e/d/ Bd | eA A/c/B/A/ | GG/A/ B/G/B/d/ |
eA AB/d/ | e/g/e/d/ Bd | e/d/e/f/ gB | A2 A2 :|
|: ea ag/a/ | bb/a/ gg/f/ | e/d/B/d/ gg/e/ | d/c/B/A/ G/A/B/G/ |
ea ag/a/ | bb/a/ gg/e/ | dB gB | A2 A2 :|
P:variations
|: eA AB/d/ | e/f/e/d/ B/A/B/d/ | eA AB/A/ | G>A Bd |
eA AB/d/ | ee/d/ B/A/B/d/ | e/d/e/f/ gB | BA A2 :|
|: ea ag/a/ | bb/a/ gg/f/ | e/d/B/d/ gB | d/c/B/A/ G/A/B/d/ |
ea ag/a/ | bb/a/ gg/f/ | e/d/B/d/ gB | BA A2 :|

